!!!!SEGMENT: Ano2004-Congratulamini_mihi_omnes.krn
!!!id: Ano2004
!!!jrpid:
!!!AGN: Motet
!!!SCT: Elzinga (1999)
!!!voices: 4
!!!COM: Anonymous
!!!OTL: Congratulamini mihi omnes
**kern	**kern	**kern	**kern
*part4	*part3	*part2	*part1
*staff4	*staff3	*staff2	*staff1
*I"Bassus	*I"Tenor	*I"Altus	*I"Superius
*I'B	*I'T	*I'A	*I'S
*clefF4	*clefGv2	*clefG2	*clefG2
*k[]	*k[]	*k[]	*k[]
*C:	*C:	*C:	*C:
*M2/1	*M2/1	*M2/1	*M2/1
*met(C|)	*met(C|)	*met(C|)	*met(C|)
!!section: Prima pars: Congratulamini mihi omnes
!!!OMD: Prima pars: Congratulamini mihi omnes
=1	=1	=1	=1
0r	0G	0r	0r
=2	=2	=2	=2
0r	1G	0r	0g
.	1G	.	.
=3	=3	=3	=3
0C	1.c	0r	1g
.	.	.	1g
.	2c	.	.
=4	=4	=4	=4
1C	1c	0c	1.cc
1C	1c	.	.
.	.	.	2cc
=5	=5	=5	=5
1.F	0A	1c	1cc
.	.	1c	1cc
2F	.	.	.
=6	=6	=6	=6
1F	0A	1.f	0a
1F	.	.	.
.	.	2f	.
=7	=7	=7	=7
1D	0d	1f	0a
1D	.	1f	.
=8	=8	=8	=8
0G	1.B	1d	1.b
.	.	1d	.
.	2c	.	4a
.	.	.	4g
=9	=9	=9	=9
1G	1d	1g	1b
1C	1e	1g	1cc
=10	=10	=10	=10
2.G	2.d	1g	2.b
8FL	4e	.	4cc
8EJ	.	.	.
2D	2f	2f	2dd
[2C	[2g	[2e	[2ee
=11	=11	=11	=11
2C]	2g]	2e]	2ee]
2D	2f	2.a	1dd
1A	1e	.	.
.	.	4g	.
.	.	2e	2cc#i
=12	=12	=12	=12
2.D	0d	2f	1.dd
.	.	2.a	.
4E	.	.	.
2F	.	.	.
.	.	4g	.
2G	.	[2g	2b
=13	=13	=13	=13
1A	1c	2g]	1cc
.	.	2f	.
1G	1d	2g	2.b
.	.	[2d	.
.	.	.	8aL
.	.	.	8gJ
=14	=14	=14	=14
2.D	2r	4d]	2.f
.	.	4e	.
.	2.d	2.f	.
4E	.	.	4g
2F	.	.	2a
.	4c	4e	.
2G	4B	[2d	[2b-i
.	4A	.	.
=15	=15	=15	=15
1E	1G	2d]	4b-]
.	.	.	4a
.	.	2c	1g
1D	1A	[1d	.
.	.	.	2f#i
=16	=16	=16	=16
[0G	0G	2d]	[0g
.	.	2B	.
.	.	[1B	.
=17	=17	=17	=17
0G]	1r	1B]	0g]
.	[1d	1r	.
=18	=18	=18	=18
0G	1d]	0r	0r
.	1d	.	.
=19	=19	=19	=19
1G	1B	0r	0r
1E	1c	.	.
=20	=20	=20	=20
1F	1d	0r	0r
1G	[1e	.	.
=21	=21	=21	=21
0A	1e]	0r	0r
.	1c	.	.
=22	=22	=22	=22
1F	1.f	0r	0r
[1B-X	.	.	.
.	2e	.	.
=23	=23	=23	=23
2B-]	2d	0r	0r
2A	2c	.	.
2G	[1d	.	.
2F	.	.	.
=24	=24	=24	=24
1G	2d]	0r	0r
.	2.e	.	.
2G	.	.	.
.	4d	.	.
[2A	4c	.	.
.	4B	.	.
=25	=25	=25	=25
4A]	2.A	0r	0r
4G	.	.	.
1F	.	.	.
.	8BL	.	.
.	8cJ	.	.
.	2d	.	.
4E	[2e	.	.
4D	.	.	.
=26	=26	=26	=26
2C	4e]	1r	1r
.	4d	.	.
2D	1d	.	.
1E	.	1g	1ee
.	2c#i	.	.
=27	=27	=27	=27
2.D	1.d	2.f	1ff
4E	.	4g	.
4F	.	1a	2ff
4G	.	.	.
2A	2c	.	[2ee
=28	=28	=28	=28
2F	1d	2a	2ee]
2D	.	2.a	1dd
1A	1e	.	.
.	.	4g	.
.	.	4f	2cc#i
.	.	4e	.
=29	=29	=29	=29
0D	2d	2f	0dd
.	4c	1g	.
.	4B	.	.
.	4A	.	.
.	4G	.	.
.	2A	2f#i	.
=30	=30	=30	=30
[0G	[0G	[0g	1r
.	.	.	[1dd
=31	=31	=31	=31
0G]	0G]	0g]	1dd]
.	.	.	1dd
=32	=32	=32	=32
0r	0r	1g	1.ee
.	.	[1a	.
.	.	.	2dd
=33	=33	=33	=33
0r	0r	2a]	2cc
.	.	2g	2b
.	.	2f	1a
.	.	2e	.
=34	=34	=34	=34
0r	0r	2.d	2r
.	.	.	1dd
.	.	4e	.
.	.	4f	.
.	.	4g	.
.	.	[2a	2cc
=35	=35	=35	=35
0r	0r	4a]	2.b
.	.	4g	.
.	.	1g	.
.	.	.	4cc
.	.	.	1a
.	.	2f#i	.
=36	=36	=36	=36
1r	1r	1g	1g
[1C	[1G	[1e	[1cc
=37	=37	=37	=37
1C]	1G]	1e]	1cc]
1C	1G	1g	1cc
=38	=38	=38	=38
1F	2.A	1f	1cc
.	4G	.	.
1E	2G	1g	1cc
.	[2c	.	.
=39	=39	=39	=39
1D	2c]	1a	1dd
.	4B	.	.
.	4A	.	.
1D	1B	1f	1dd
=40	=40	=40	=40
[0C	1c	1e	1ee
.	1G	[1g	2cc
.	.	.	[2ee
=41	=41	=41	=41
0C]	2.c	1g]	4ee]
.	.	.	4dd
.	.	.	1cc
.	4d	.	.
.	1e	1g	.
.	.	.	4b
.	.	.	4a
=42	=42	=42	=42
1G	1.d	1g	1b
2F	.	2a	2a
[2G	[2d	[2g	[2b
=43	=43	=43	=43
2G]	2d]	4g]	4b]
.	.	4f	4a
2A	2c	4e	1a
.	.	4d	.
1E	1B	1e	.
.	.	.	2g#i
=44	=44	=44	=44
2.F	2A	2c	1a
.	2d	2f	.
4G	.	.	.
2A	2c	2e	2r
2D	2d	2d	[2dd
=45	=45	=45	=45
1.G	4G	2r	4dd]
.	4A	.	4cc
.	4B	2.d	4b
.	4c	.	4a
.	4d	.	2b
.	4B	4e	.
2F	[2c	2f	[2a
=46	=46	=46	=46
1E	4c]	2g	4a]
.	4B	.	4g
.	4A	2c	1g
.	4G	.	.
1D	1A	1d	.
.	.	.	2f#i
=47	=47	=47	=47
[0G	[0G	0d	0g
=48	=48	=48	=48
0G]	0G]	1r	1r
.	.	[1d	[1dd
=49	=49	=49	=49
0r	0r	2d]	2dd]
.	.	2d	2b
.	.	2e	2cc
.	.	2f	2dd
=50	=50	=50	=50
0r	0r	1g	2.b
.	.	.	4cc
.	.	1g	2dd
.	.	.	[2ee
=51	=51	=51	=51
0r	0r	1g	4ee]
.	.	.	4dd
.	.	.	4cc
.	.	.	4b
.	.	2.a	2ff
.	.	.	[2ee
.	.	4g	.
=52	=52	=52	=52
0r	0r	2f	4ee]
.	.	.	4dd
.	.	4e	1dd
.	.	4d	.
.	.	1e	.
.	.	.	2cc#i
=53	=53	=53	=53
0r	0r	[0d	1dd
.	.	.	[1a
=54	=54	=54	=54
0r	0r	0d]	1a]
.	.	.	1a
=55	=55	=55	=55
0r	0r	1d	1b
.	.	1e	1cc
=56	=56	=56	=56
0r	0r	2f	1.dd
.	.	1g	.
.	.	[2a	[2cc
=57	=57	=57	=57
0r	0r	4a]	4cc]
.	.	4g	4b
.	.	1g	4a
.	.	.	4g
.	.	.	1a
.	.	2f#i	.
=58	=58	=58	=58
1r	1r	1g	1g
[1G	[1G	[1d	[1b
=59	=59	=59	=59
1G]	1G]	1d]	1b]
1G	1B	1d	1dd
=60	=60	=60	=60
1C	1c	1g	1cc
1G	1d	1g	1b
=61	=61	=61	=61
2.D	0d	1.f	2.a
4E	.	.	4g
2F	.	.	2a
2G	.	2d	[2b
=62	=62	=62	=62
1A	1c	2f	4b]
.	.	.	4a
.	.	2.e	1a
1E	1B	.	.
.	.	4d	.
.	.	2B	2g#i
=63	=63	=63	=63
1.A	1A	2.c	0a
.	.	4d	.
.	1r	4e	.
.	.	4f	.
2G	.	[2e	.
=64	=64	=64	=64
2.F	0r	4e]	0r
.	.	4d	.
.	.	1d	.
8EL	.	.	.
8DJ	.	.	.
1E	.	.	.
.	.	2c#i	.
=65	=65	=65	=65
0D	1A	0d	1r
.	[1d	.	1a
=66	=66	=66	=66
1D	1d]	1r	0dd
[1G	1B	1d	.
=67	=67	=67	=67
1G]	1G	0g	1b
1E	[1c	.	1g
=68	=68	=68	=68
1C	1c]	1e	0cc
[1F	1A	1c	.
=69	=69	=69	=69
1F]	1.d	0f	1a
1D	.	.	[1dd
.	2c	.	.
=70	=70	=70	=70
1.G	2B	1d	2dd]
.	2A	.	2cc
.	1G	[1g	2b
2F	.	.	2a
=71	=71	=71	=71
2E	1c	2g]	2.g
2D	.	2f	.
.	.	.	4f
1C	1c	1e	2g
.	.	.	[2a
=72	=72	=72	=72
2.D	2B	2.d	4a]
.	.	.	4g
.	4A	.	1g
4D	4G	4d	.
2D	1A	2d	.
2D	.	2d	2f#i
=73	=73	=73	=73
0G	0G	1d	1g
.	.	1r	1r
=74	=74	=74	=74
0r	0r	1g	2.b
.	.	.	4cc
.	.	1g	2dd
.	.	.	[2ee
=75	=75	=75	=75
0r	0r	1f	4ee]
.	.	.	4dd
.	.	.	1dd
.	.	1e	.
.	.	.	2cc#i
=76	=76	=76	=76
1.d	2.f	1d	0dd
.	8eL	.	.
.	8dJ	.	.
.	2f	1r	.
2c	2e	.	.
=77	=77	=77	=77
2B	2d	0r	0r
4A	1g	.	.
4G	.	.	.
1A	.	.	.
.	2f#i	.	.
=78	=78	=78	=78
1.G	1g	2r	2r
.	.	2d	1dd
.	2r	2e	.
2B	2G	[2g	2b
=79	=79	=79	=79
1A	1c	2g]	1cc
.	.	2f	.
2G	2d	2g	2b
2F	2A	2d	[2a
=80	=80	=80	=80
2E	2B	1e	4a]
.	.	.	4g
2C	2c	.	1g
1D	1A	1d	.
.	.	.	2f#i
=	=	=	=
00G	00G	00d	00g
=||	=||	=||	=||
*M2/1	*M2/1	*M2/1	*M2/1
*met(C|)	*met(C|)	*met(C|)	*met(C|)
!!section: Secunda pars: Tulerunt dominum 
!!!OMD: Secunda pars: Tulerunt dominum
0r	0d	0r	0r
=81	=81	=81	=81
0G	1d	0r	0r
.	1d	.	.
=82	=82	=82	=82
1G	1.e	0r	0r
1G	.	.	.
.	4d	.	.
.	4c	.	.
=83	=83	=83	=83
1.A	1c	0r	0r
.	2r	.	.
2F	2c	.	.
=84	=84	=84	=84
1F	2d	0r	0r
.	1f	.	.
2r	.	.	.
2F	4e	.	.
.	4d	.	.
=85	=85	=85	=85
2G	2e	0r	0r
1B	1d	.	.
4A	4c	.	.
4G	4B	.	.
=86	=86	=86	=86
2A	2c	0r	0r
1G	1B	.	.
4F	4A	.	.
4E	4G	.	.
=87	=87	=87	=87
2F	2A	0r	0r
1E	2.G	.	.
.	4A	.	.
4D	4B	.	.
4C	4c	.	.
=88	=88	=88	=88
2BB	2d	0r	0r
2.C	1e	.	.
4D	.	.	.
4E	4d	.	.
4F	4c	.	.
=89	=89	=89	=89
2G	2B	0r	0r
2A	2c	.	.
2F	2A	.	.
2D	[2f	.	.
=90	=90	=90	=90
2F	4f]	0r	0r
.	4e	.	.
2G	1d	.	.
1E	.	.	.
.	2c#i	.	.
=91	=91	=91	=91
[0D	[0d	0r	1r
.	.	.	1a
=92	=92	=92	=92
0D]	0d]	1d	1.a
.	.	[1d	.
.	.	.	2a
=93	=93	=93	=93
0r	0r	2d]	1a
.	.	2d	.
.	.	1d	[1dd
=94	=94	=94	=94
0r	0r	0g	1dd]
.	.	.	1b
=95	=95	=95	=95
0r	0r	1e	1cc
.	.	1f	1dd
=96	=96	=96	=96
0r	0r	1g	1.ee
.	.	1a	.
.	.	.	4dd
.	.	.	4cc
=97	=97	=97	=97
0r	0r	2g	2b
.	.	2f	2a
.	.	2e	1cc
.	.	[2a	.
=98	=98	=98	=98
0r	0r	2a]	1b
.	.	2g	.
.	.	2f	4a
.	.	.	4b
.	.	4e	4cc
.	.	4d	4dd
=99	=99	=99	=99
0r	0r	2c	2ee
.	.	1d	2dd
.	.	.	2ff
.	.	2e	[2ee
=100	=100	=100	=100
0r	0r	2f	4ee]
.	.	.	4dd
.	.	2g	1dd
.	.	1e	.
.	.	.	2cc#i
=101	=101	=101	=101
1r	1r	1d	0dd
[1G	[1B	[1g	.
=102	=102	=102	=102
1G]	1B]	1g]	1dd
1G	1B	1g	1dd
=103	=103	=103	=103
1G	1d	1g	1b
1G	1B	2d	1dd
.	.	[2g	.
=104	=104	=104	=104
1A	1c	2g]	1cc
.	.	4f#i	.
.	.	4e	.
1A	1c	1f#i	1a
=105	=105	=105	=105
0G	0d	0g	0b
=106	=106	=106	=106
1.G	1.B	1.g	1.dd
2G	2B	2d	2dd
=107	=107	=107	=107
1G	1.B	1d	1dd
1G	.	[1d	1dd
.	4A	.	.
.	4G	.	.
=108	=108	=108	=108
0D	2A	2d]	0ff
.	1c	2e	.
.	.	2f	.
.	2B	2d	.
=109	=109	=109	=109
0C	0c	1g	1ee
.	.	2r	2r
.	.	2e	2cc
=110	=110	=110	=110
0r	0r	2f	2dd
.	.	2g	2ee
.	.	1a	1ff
=111	=111	=111	=111
0r	0r	2g	2ee
.	.	1f	1dd
.	.	4e	4cc
.	.	4d	4b
=112	=112	=112	=112
0r	0r	2f	2a
.	.	2g	1dd
.	.	1e	.
.	.	.	2cc#i
=113	=113	=113	=113
1r	1r	1d	1dd
1G	1d	1d	1b
=114	=114	=114	=114
1G	1d	1g	1b
1G	1B	1g	1dd
=115	=115	=115	=115
1.A	1c	2.e	1.cc
.	.	8dL	.
.	.	8eJ	.
.	2A	2f	.
2G	2B	4g	2b
.	.	4f	.
=116	=116	=116	=116
2F	2c	4e	2a
.	.	4d	.
2F	2A	1d	2a
1E	2B	.	1g
.	2G	2c#i	.
=117	=117	=117	=117
0D	0A	1d	1f
.	.	2r	2r
.	.	2f	2dd
=118	=118	=118	=118
0r	0r	2f	2dd
.	.	2f	2dd
.	.	2.g	2.ee
.	.	4d	4dd
=119	=119	=119	=119
1r	1r	2f	2dd
.	.	2e	2cc#i
2r	2r	1d	1dd
2D	2f	.	.
=120	=120	=120	=120
2D	2f	0r	0r
2D	2f	.	.
2.G	2.e	.	.
4G	4d	.	.
=121	=121	=121	=121
2F	2d	1r	1r
2E	2c#i	.	.
1D	1d	1f	1dd
=122	=122	=122	=122
1r	1r	2f	2cc
.	.	2g	2b
1D	1d	1f	2a
.	.	.	2b
=123	=123	=123	=123
2F	2c	1r	2a
2G	2B	.	2g
1D	1A	1f	1a
=124	=124	=124	=124
1G	2r	2g	1.b
.	1d	2g	.
2D	.	2.f	.
[2F	[2c	.	[2a
.	.	4e	.
=125	=125	=125	=125
4F]	4c]	2d	4a]
4G	4B	.	4g
2E	2G	2c	1g
1D	1A	1d	.
.	.	.	2f#i
=126	=126	=126	=126
0G	1G	0d	0g
.	1r	.	.
=127	=127	=127	=127
0r	0d	0r	0r
=128	=128	=128	=128
0G	1d	0r	0r
.	1d	.	.
=129	=129	=129	=129
1G	1.g	0r	0r
1G	.	.	.
.	2f	.	.
=130	=130	=130	=130
1.c	1.e	0r	0r
2B	2d	.	.
=131	=131	=131	=131
2.A	2.c	0r	0r
4G	4B	.	.
2F	2A	.	.
2E	2e	.	.
=132	=132	=132	=132
4D	1.f	0r	0r
4E	.	.	.
4F	.	.	.
4G	.	.	.
2A	.	.	.
[2G	(2e	.	.
=133	=133	=133	=133
4G]	4e)	0r	0r
4F	4d	.	.
4E	1d	.	.
4D	.	.	.
1E	.	.	.
.	2c#i	.	.
=134	=134	=134	=134
1D	0d	0r	0r
[1G	.	.	.
=135	=135	=135	=135
2G]	1.d	0r	0r
2A	.	.	.
2B	.	.	.
2G	2e	.	.
=136	=136	=136	=136
2A	2f	0r	0r
2B	2d	.	.
2c	2e	.	.
2A	2f	.	.
=137	=137	=137	=137
1.G	2.g	0r	0r
.	4f	.	.
.	2e	.	.
[2F	[2d	.	.
=138	=138	=138	=138
4F]	2d]	0r	0r
4E	.	.	.
4D	1c	.	.
4C	.	.	.
1D	.	.	.
.	2B	.	.
=	=	=	=
*M3/1	*M3/1	*M3/1	*M3/1
*met(3)	*met(3)	*met(3)	*met(3)
1C	1c	1r	1r
1r	1r	1r	1r
1C	1c	1e	1cc
=139	=139	=139	=139
0F	0c	0f	0a
1F	1c	1f	1a
=140	=140	=140	=140
0A	0c	0e	0cc
1A	1c	1f	1cc
=141	=141	=141	=141
0G	0d	0g	1.b
.	.	.	2a
1G	1d	1g	1b
=142	=142	=142	=142
0D	0d	0f	1a
.	.	.	0dd
1D	1d	1f	.
=143	=143	=143	=143
1.F	1.A	0f	1cc
.	.	.	0ff
2E	2G	.	.
1D	2A	1f	.
.	2B	.	.
=144	=144	=144	=144
1C	1c	0g	1ee
1G	1B	.	1.dd
[1A	[1c	1e	.
.	.	.	2cc
=145	=145	=145	=145
1A]	1c]	1f	0cc
0G	0d	0g	.
.	.	.	1b
=146	=146	=146	=146
0C	0c	0e	0cc
1C	1r	1e	1g
=147	=147	=147	=147
1.F	0c	0f	1.a
2G	.	.	2b
1A	1c	2e	1cc
.	.	2f	.
=148	=148	=148	=148
1G	1d	1g	1b
1F	1A	1d	1.a
1E	1B	1e	.
.	.	.	2g
=149	=149	=149	=149
1C	1c	1e	0g
0D	0A	0d	.
.	.	.	1f#i
=	=	=	=
*M2/1	*M2/1	*M2/1	*M2/1
*met(C|)	*met(C|)	*met(C|)	*met(C|)
1G	1G	1r	1g
1G	1d	1d	1b
=150	=150	=150	=150
1G	1d	1g	1b
1G	1B	1g	1dd
=151	=151	=151	=151
1.A	1c	2.e	1.cc
.	.	8dL	.
.	.	8eJ	.
.	2A	2f	.
2G	2B	4g	2b
.	.	4f	.
=152	=152	=152	=152
2F	2c	4e	2a
.	.	4d	.
2F	2A	1d	2a
1E	2B	.	1g
.	2G	2c#i	.
=153	=153	=153	=153
0D	0A	1d	1f
.	.	2r	2r
.	.	2f	2dd
=154	=154	=154	=154
0r	0r	2f	2dd
.	.	2f	2dd
.	.	2.g	2.ee
.	.	4d	4dd
=155	=155	=155	=155
1r	1r	2f	2dd
.	.	2e	2cc#i
2r	2r	1d	1dd
2D	2f	.	.
=156	=156	=156	=156
2D	2f	0r	0r
2D	2f	.	.
2.G	2.e	.	.
4G	4d	.	.
=157	=157	=157	=157
2F	2d	1r	1r
2E	2c#i	.	.
1D	1d	1f	1dd
=158	=158	=158	=158
1r	1r	2f	2cc
.	.	2g	2b
1D	1d	1f	2a
.	.	.	2b
=159	=159	=159	=159
2F	2c	1r	2a
2G	2B	.	2g
1D	1A	1f	1a
=160	=160	=160	=160
1G	2r	2g	1.b
.	1d	2g	.
2D	.	2.f	.
[2F	[2c	.	[2a
.	.	4e	.
=161	=161	=161	=161
4F]	4c]	2d	4a]
4G	4B	.	4g
2E	2G	2c	1g
1D	1A	1d	.
.	.	.	2f#i
=162	=162	=162	=162
0E	0G	1B	1.g
.	.	1c	.
.	.	.	4f#i
.	.	.	4e
=163	=163	=163	=163
0D	0A	0d	0f#i
=164	=164	=164	=164
00Gl	00Gl	00dl	00gl
==	==	==	==
*-	*-	*-	*-
!!!system-decoration: [*]
!!!RDF**kern: i = editorial accidental
!!!RDF**kern: l = terminal long
!!!ENC: Benjamin Ory
!!!END: 2022/3/5
!!!EED: Benjamin Ory
!!!EEV: 2022/03/04
!!!YEC: Copyright 2022 Benjamin Ory, All Rights Reserved
!!!ONB: Translated from MusicXML on 2022/03/04
